Adwaita++/actions/22/account-update-online.svg

<svg height="22" width="22" xmlns="http://www.w3.org/2000/svg">
  <g fill="#444">
    <path d="m11 3c-4.4182857 0-8 3.581714-8 8s3.5817143 8 8 8c1.15464 0 2.248855-.249224 3.240234-.689453-.145443-.412937-.240234-.849967-.240234-1.310547 0-1.843561 1.293651-3.340513 3-3.796875v-.203125a1.0001 1.0001 0 0 1 .943359-.998047 1.0001 1.0001 0 0 1 .65625.197266l.269532.203125c.080876-.456324.130859-.9228.130859-1.402344 0-4.418286-3.581714-8-8-8zm-.572266 2.2148438c.07646-.0080001.172858.00457.25 0 .0091.036571-.055381.1669876-.142578.3574218-.5552677 1.2130285-.5856472 2.6332637-.070312 3.3925782.09326.1376685.177734.2681275.177734.2851562 0 .017028-.101129.0351563-.214844.0351562-.266948 0-.5190069-.1615924-1.0351559-.5703124-.229289-.1815655-.5270924-.3343362-.6425781-.3574219-.1813486-.0362287-.230238-.0197848-.4648438.2148437-.2182743.21824-.2851562.335362-.2851562.5351563 0 .7576456.9003566 1.3604441 2.572266 1.7148441 2.270514.481223 2.829949.911548 2.892578 2.105468.07863 1.497143-.719015 2.626058-2.464844 3.5-.208377.104343-.340306.145974-.427734.179688-.03874-.0034-.068789.0034-.107422 0-.01486-.04629-.03711-.153948-.03711-.357422 0-.795177-.31287-1.614551-.7851559-2.072266-.126777-.12288-.4811791-.382141-.7851562-.570312-.3039658-.18816-.6113446-.406743-.6796875-.5-.1132621-.154755-.1221734-.24927-.0351563-.535156.1585829-.522137.3478952-.814623.7148438-1.144532.1923771-.17296.3851173-.316884.4277343-.320312.04263-.0034-.2450482-.091176-.6777343-.179688-.4326629-.088685-1.0653439-.274144-1.3925781-.392578-.5983771-.216514-1.4068438-.6710399-1.7148438-.9999998-.0130286-.0139429-.0238419-.0228134-.0351562-.0351562.4412914-1.7578286 1.6785982-3.1982924 3.3203124-3.8925781.3435087-.1452914.6984597-.2458086 1.0722657-.3222657.1861941-.038057.3780611-.0507699.5703121-.0703124zm5.357422 2.6777343c.134229.082971.642435 1.1799867.78711 1.7148438.186788.6905031.173268 1.8843691 0 2.5703121-.06594.261074-.151574.50671-.179688.53711-.02811.0304-.130068-.144885-.25-.357422-.119943-.212503-.501924-.664058-.820312-1-.919018-.969749-1.064648-1.4760574-.679688-2.2500001.194137-.3902743 1.038693-1.2789581 1.142578-1.2148438z"/>
    <path d="m18 13v1a3 3 0 0 0 -3 3 3 3 0 0 0 3 3 3 3 0 0 0 3-3h-1a2 2 0 0 1 -2 2 2 2 0 0 1 -2-2 2 2 0 0 1 2-2v1l.984375-.738281a2 2 0 0 1 .015625.007812v-.019531l1-.75-1-.75z"/>
  </g>
</svg>

<svg xmlns="http://www.w3.org/2000/svg" width="22" height="22" version="1.1">
 <defs>
  <style id="current-color-scheme" type="text/css">
   .ColorScheme-Text { color:#444444; } .ColorScheme-Highlight { color:#4285f4; }
  </style>
 </defs>
 <path style="fill:currentColor" class="ColorScheme-Text" d="M 11 3 C 6.5817143 3 3 6.581714 3 11 C 3 15.418286 6.5817143 19 11 19 C 12.15464 19 13.248855 18.750776 14.240234 18.310547 C 14.094791 17.89761 14 17.46058 14 17 C 14 15.156439 15.293651 13.659487 17 13.203125 L 17 13 A 1.0001 1.0001 0 0 1 17.943359 12.001953 A 1.0001 1.0001 0 0 1 18.599609 12.199219 L 18.869141 12.402344 C 18.950017 11.94602 19 11.479544 19 11 C 19 6.581714 15.418286 3 11 3 z M 10.427734 5.2148438 C 10.504194 5.2068437 10.600592 5.2194138 10.677734 5.2148438 C 10.686834 5.2514148 10.622353 5.3818314 10.535156 5.5722656 C 9.9798883 6.7852941 9.9495088 8.2055293 10.464844 8.9648438 C 10.558104 9.1025123 10.642578 9.2329713 10.642578 9.25 C 10.642578 9.267028 10.541449 9.2851563 10.427734 9.2851562 C 10.160786 9.2851562 9.9087271 9.1235638 9.3925781 8.7148438 C 9.1632891 8.5332783 8.8654857 8.3805076 8.75 8.3574219 C 8.5686514 8.3211932 8.519762 8.3376371 8.2851562 8.5722656 C 8.0668819 8.7905056 8 8.9076276 8 9.1074219 C 8 9.8650675 8.9003566 10.467866 10.572266 10.822266 C 12.84278 11.303489 13.402215 11.733814 13.464844 12.927734 C 13.543474 14.424877 12.745829 15.553792 11 16.427734 C 10.791623 16.532077 10.659694 16.573708 10.572266 16.607422 C 10.533526 16.604022 10.503477 16.610822 10.464844 16.607422 C 10.449984 16.561132 10.427734 16.453474 10.427734 16.25 C 10.427734 15.454823 10.114864 14.635449 9.6425781 14.177734 C 9.5158011 14.054854 9.161399 13.795593 8.8574219 13.607422 C 8.5534561 13.419262 8.2460773 13.200679 8.1777344 13.107422 C 8.0644723 12.952667 8.055561 12.858152 8.1425781 12.572266 C 8.301161 12.050129 8.4904733 11.757643 8.8574219 11.427734 C 9.049799 11.254774 9.2425392 11.11085 9.2851562 11.107422 C 9.3277862 11.104022 9.040108 11.016246 8.6074219 10.927734 C 8.174759 10.839049 7.542078 10.65359 7.2148438 10.535156 C 6.6164667 10.318642 5.808 9.8641161 5.5 9.5351562 C 5.4869714 9.5212133 5.4761581 9.5123428 5.4648438 9.5 C 5.9061352 7.7421714 7.143442 6.3017076 8.7851562 5.6074219 C 9.1286649 5.4621305 9.4836159 5.3616133 9.8574219 5.2851562 C 10.043616 5.2470992 10.235483 5.2343863 10.427734 5.2148438 z M 15.785156 7.8925781 C 15.919385 7.9755491 16.427591 9.0725648 16.572266 9.6074219 C 16.759054 10.297925 16.745534 11.491791 16.572266 12.177734 C 16.506326 12.438808 16.420692 12.684444 16.392578 12.714844 C 16.364468 12.745244 16.26251 12.569959 16.142578 12.357422 C 16.022635 12.144919 15.640654 11.693364 15.322266 11.357422 C 14.403248 10.387673 14.257618 9.8813646 14.642578 9.1074219 C 14.836715 8.7171476 15.681271 7.8284638 15.785156 7.8925781 z"/>
 <path style="fill:currentColor" class="ColorScheme-Text" d="M 18 13 L 18 14 A 3 3 0 0 0 15 17 A 3 3 0 0 0 18 20 A 3 3 0 0 0 21 17 L 20 17 A 2 2 0 0 1 18 19 A 2 2 0 0 1 16 17 A 2 2 0 0 1 18 15 L 18 16 L 18.984375 15.261719 A 2 2 0 0 1 19 15.269531 L 19 15.25 L 20 14.5 L 19 13.75 L 18 13 z"/>
</svg>
